public/assets/standards/soft/join-gsf-icon.svg

<svg width="32" height="32" viewBox="0 0 32 32" fill="none" xmlns="http://www.w3.org/2000/svg">
<g clip-path="url(#clip0_1_2349)">
<path d="M19.68 32.0001H0V24.9201C0 23.1801 0.45 21.5401 1.25 20.1201C2.93 17.1101 6.15 15.0801 9.84 15.0801C15.27 15.0801 19.68 19.4901 19.68 24.9201V32.0001Z" fill="#006D68"/>
<path d="M31.9999 32.0001H12.3199V24.9201C12.3199 19.4901 16.7299 15.0801 22.1599 15.0801C24.1999 15.0801 26.0899 15.7001 27.6599 16.7601C30.2799 18.5301 31.9999 21.5201 31.9999 24.9201V32.0001Z" fill="#A5C352"/>
<path d="M9.18999 13.94C12.0619 13.94 14.39 11.6119 14.39 8.74004C14.39 5.86816 12.0619 3.54004 9.18999 3.54004C6.31811 3.54004 3.98999 5.86816 3.98999 8.74004C3.98999 11.6119 6.31811 13.94 9.18999 13.94Z" fill="#A5C352"/>
<path d="M4.18005 8.19005C4.35005 7.65005 4.87005 7.29005 5.42005 7.16005C7.30005 6.71005 9.18005 7.12005 11.0101 6.72005C11.8501 6.54005 12.6601 6.16005 13.2801 5.57005C13.9101 4.98005 14.3301 4.16005 14.3801 3.30005" stroke="#006D68" stroke-width="0.74" stroke-miterlimit="10" stroke-linecap="round"/>
<path d="M22.73 13.94C25.6019 13.94 27.93 11.6119 27.93 8.74004C27.93 5.86816 25.6019 3.54004 22.73 3.54004C19.8581 3.54004 17.53 5.86816 17.53 8.74004C17.53 11.6119 19.8581 13.94 22.73 13.94Z" fill="#006D68"/>
<path d="M22.73 8.06994C24.768 8.06994 26.42 6.41787 26.42 4.37994C26.42 2.34201 24.768 0.689941 22.73 0.689941C20.6921 0.689941 19.04 2.34201 19.04 4.37994C19.04 6.41787 20.6921 8.06994 22.73 8.06994Z" stroke="#006D68" stroke-width="0.74" stroke-miterlimit="10" stroke-linecap="round"/>
</g>
<defs>
<clipPath id="clip0_1_2349">
<rect width="32" height="32" fill="white"/>
</clipPath>
</defs>
</svg>

<svg xmlns="http://www.w3.org/2000/svg" width="32" height="32" fill="none" viewBox="0 0 32 32"><g clip-path="url(#a)"><path fill="#006d68" d="M19.68 32H0v-7.08c0-1.74.45-3.38 1.25-4.8a9.83 9.83 0 0 1 8.59-5.04c5.43 0 9.84 4.41 9.84 9.84z"/><path fill="#a5c352" d="M32 32H12.32v-7.08c0-5.43 4.41-9.84 9.84-9.84 2.04 0 3.93.62 5.5 1.68A9.82 9.82 0 0 1 32 24.92zM9.19 13.94a5.2 5.2 0 1 0 0-10.4 5.2 5.2 0 0 0 0 10.4"/><path stroke="#006d68" stroke-linecap="round" stroke-miterlimit="10" stroke-width=".74" d="M4.18 8.19c.17-.54.69-.9 1.24-1.03 1.88-.45 3.76-.04 5.59-.44.84-.18 1.65-.56 2.27-1.15.63-.59 1.05-1.41 1.1-2.27"/><path fill="#006d68" d="M22.73 13.94a5.2 5.2 0 1 0 0-10.4 5.2 5.2 0 0 0 0 10.4"/><path stroke="#006d68" stroke-linecap="round" stroke-miterlimit="10" stroke-width=".74" d="M22.73 8.07a3.69 3.69 0 1 0 0-7.38 3.69 3.69 0 0 0 0 7.38Z"/></g><defs><clipPath id="a"><path fill="#fff" d="M0 0h32v32H0z"/></clipPath></defs></svg>
